svgs/debloater.svg

<svg xmlns="http://www.w3.org/2000/svg" viewBox="0 0 192 192"><path d="M46.223 75.387 57.693 175.5h82.58l11.468-100.113Z" fill="none" stroke="#000" stroke-width="8" stroke-linecap="round" stroke-linejoin="round"/><path d="M151.743 75.387 67.171 16.5" fill="none" stroke="#000" stroke-width="8" stroke-linecap="round" stroke-miterlimit="4.75"/><path d="M55.934 54.199a3.045 3.045 0 0 1-.903-2.162c0-.81.325-1.589.903-2.162a3.096 3.096 0 0 1 2.18-.895c.817 0 1.601.322 2.179.895.578.573.903 1.352.903 2.162 0 .811-.325 1.589-.903 2.162a3.103 3.103 0 0 1-4.359 0Zm15.709 15.582a3.042 3.042 0 0 1-.431-3.789 3.079 3.079 0 0 1 1.592-1.259 3.103 3.103 0 0 1 3.629 1.259 3.042 3.042 0 0 1-.431 3.789 3.096 3.096 0 0 1-2.18.895 3.096 3.096 0 0 1-2.179-.895Z"/><path d="M85.79 75.388a26.802 26.802 0 0 0 1.527-15.579 26.937 26.937 0 0 0-7.446-13.801 27.332 27.332 0 0 0-19.24-7.905 27.33 27.33 0 0 0-19.24 7.905 3.837 3.837 0 0 0-1.138 2.724c0 1.021.41 2.002 1.138 2.724l24.127 23.931m.615-48.712-.968 11.804m34.196 21.156-11.9.959" fill="none" stroke="#000" stroke-width="8" stroke-linecap="round" stroke-linejoin="round"/></svg>

<svg
    xmlns="http://www.w3.org/2000/svg"
    viewBox="0 0 192 192"
    id="vector">
    <path
        id="path"
        d="M 46.223 75.387 L 57.693 175.5 L 140.273 175.5 L 151.741 75.387 Z"
        fill="none"
        stroke="#000000"
        stroke-width="8"
        stroke-linecap="round"
        stroke-linejoin="round"/>
    <path
        id="path_1"
        d="M 151.743 75.387 L 67.171 16.5"
        fill="none"
        stroke="#000000"
        stroke-width="8"
        stroke-linecap="round"
        stroke-miterlimit="4.75"/>
    <path
        id="path_2"
        d="M 55.934 54.199 C 55.356 53.626 55.031 52.848 55.031 52.037 C 55.031 51.227 55.356 50.448 55.934 49.875 C 56.512 49.302 57.296 48.98 58.114 48.98 C 58.931 48.98 59.715 49.302 60.293 49.875 C 60.871 50.448 61.196 51.227 61.196 52.037 C 61.196 52.848 60.871 53.626 60.293 54.199 C 59.911 54.579 59.434 54.852 58.911 54.991 C 58.389 55.13 57.838 55.13 57.316 54.991 C 56.793 54.852 56.316 54.579 55.934 54.199 Z M 71.643 69.781 C 71.149 69.291 70.837 68.649 70.759 67.961 C 70.681 67.273 70.841 66.578 71.212 65.992 C 71.584 65.406 72.145 64.961 72.804 64.733 C 73.463 64.504 74.181 64.504 74.84 64.733 C 75.5 64.961 76.061 65.406 76.433 65.992 C 76.804 66.578 76.964 67.273 76.886 67.961 C 76.807 68.649 76.496 69.291 76.002 69.781 C 75.424 70.354 74.64 70.676 73.822 70.676 C 73.005 70.676 72.221 70.354 71.643 69.781 Z"
        fill="#000000"
        stroke-width="8"/>
    <path
        id="path_3"
        d="M 85.79 75.388 C 87.838 70.459 88.37 65.037 87.317 59.809 C 86.263 54.581 83.672 49.777 79.871 46.008 C 74.77 40.948 67.844 38.103 60.631 38.103 C 53.417 38.103 46.492 40.948 41.391 46.008 C 40.663 46.73 40.253 47.71 40.253 48.732 C 40.253 49.753 40.663 50.734 41.391 51.456 L 65.518 75.387 M 66.133 26.675 L 65.165 38.479 M 99.361 59.635 L 87.461 60.594"
        fill="none"
        stroke="#000000"
        stroke-width="8"
        stroke-linecap="round"
        stroke-linejoin="round"/>
</svg>
